X: 1
T: Margaret Malone Carolan
M: 2/4
L: 1/8
R: polka
K: Amix
A2 EA | BA GA/B/ | ee/A/ GE | ef/e/ dc/B/ |
cg e/c/e/a/ | ge ee/f/ | &quot;tr&quot;d2 cd | e4 |
e/d/c/B/ d/c/B/A/ | GE Ec | GE ED/C/ | D2E2 |
cB/A/ Gd | c/B/A/G/ ed/e/ | fe d/c/B/A/ | A4 :|
|: EA EA | A/G/A/b/ CE | ef/e/ dg | ef/e/ dg |
e/d/c/B/ d/c/B/A/ | GG/E/ CE | ED EG | A3 b |
c/d/e c/d/e | d2 de/g/ | ag e2 | &quot;tr&quot; d2 ed |
cB/A/ Ge | d/c/B/A/ GA/B/ | cE DE/G/ | A2 A2 :|
